X: 1
T: Harvest Home
R: hornpipe
Z: John Chambers <jc:trillian.mit.edu>
M: 4/4
L: 1/8
K: D
AF |\
"D"DAFA DAFA | defe dcBA | "A7"eAfA gAfA | edcB AGFE |
"D"DAFA DAFA | defe dcBA | "A7"eAfA gece | "D"d2f2 d2 :|
|: cd |\
"A7"eA~A2 "D"fA~A2 | "A7/e"gAfA "D"eA~A2 | "A7"eAfA gAfA | "Em"(3efe (3dcB "A7"(3ABA (3GFE |
"D"DAFA DAFA | defe dcBA | "A7"eAfA gece | "D"d2f2 d2 :|
